X:165
T: DIE MEIERSCHE BRUECKE
N: K2305
O: Europa, Mitteleuropa, Deutschland, Kassel
R: Kinder - Lied, Reigen, Tanz - Spiel
M: 6/8
L: 1/8
K: D
A | AAAFDB | A2AFD
A | AAAFD
B | A3F2B | A3F2
D | A2AB2B | A3F2
D | AAAB2B | A2GFD
B | A2GF2B | A2GF2
A | BBBAAG | FDz3

